assets/demo_team/system.svg

<svg width="81" height="81" viewBox="0 0 81 81" fill="none" xmlns="http://www.w3.org/2000/svg">
<path d="M77.2462 40.0318C77.9133 39.4883 78.4803 38.843 78.9473 38.0957C79.7144 36.9749 80.0813 35.7351 80.0479 34.3765C80.0145 32.2026 79.2808 30.3006 77.8466 28.6702C76.7126 27.4135 75.2617 26.5983 73.494 26.2246C72.8603 26.1567 72.2599 26.2246 71.6929 26.4284C69.8585 26.5643 68.1241 27.0059 66.4898 27.7531C59.7858 31.0138 53.1985 34.5123 46.728 38.2486C46.261 38.4863 45.8107 38.7751 45.3771 39.1147C45.077 39.3864 44.7267 39.6412 44.3265 39.879C44.2598 39.879 44.1931 39.879 44.1264 39.879C44.093 39.811 44.0764 39.7601 44.0764 39.7261C44.043 39.6242 44.043 39.5393 44.0764 39.4714C45.7107 34.4444 47.3617 29.4174 49.0293 24.3905C49.7297 22.2167 50.18 20.0089 50.3801 17.7671C50.4802 16.5783 50.5969 15.4065 50.7303 14.2516C50.9638 11.874 50.8638 9.53038 50.4302 7.22069C50.1633 5.96395 49.6297 4.86006 48.8292 3.90901C47.5618 2.44848 46.0109 1.44648 44.1764 0.903026C43.6428 0.835094 43.1258 0.784146 42.6255 0.75018C41.3581 0.682248 40.174 0.953976 39.0734 1.56536C38.8399 1.70123 38.6064 1.85407 38.3729 2.0239C38.1395 2.19373 37.9227 2.39753 37.7226 2.63529C37.2556 3.07685 36.8387 3.55237 36.4718 4.06186C35.2377 5.82809 34.4039 7.76415 33.9703 9.87004C32.3694 17.4105 30.8685 24.9679 29.4676 32.5423C29.4343 32.814 29.4343 33.0858 29.4676 33.3575C29.501 33.6971 29.551 34.0368 29.6177 34.3765C26.149 31.1157 22.6135 27.9399 19.0113 24.849C17.277 23.3206 15.4592 21.894 13.5581 20.5693C13.0911 20.2976 12.6242 20.0428 12.1572 19.8051C10.8898 19.1937 9.57236 18.8201 8.20487 18.6842C5.90349 18.6502 3.95233 19.4484 2.35137 21.0788C0.850468 22.5733 0.0833411 24.4924 0.0499878 26.836C0.0499878 28.0928 0.350167 29.3495 0.950527 30.6062C1.55089 31.897 2.36804 33.1537 3.402 34.3765C8.20487 38.5882 13.1078 42.6642 18.1108 46.6042C19.3782 47.6232 20.7457 48.5063 22.2133 49.2536C17.0101 53.6691 11.8237 58.1017 6.65394 62.5512C6.02023 63.1286 5.43655 63.757 4.90289 64.4363C4.43595 65.0477 4.10241 65.727 3.90229 66.4743C3.402 68.3424 3.1852 70.2615 3.25191 72.2315C3.28526 73.1826 3.55209 74.0996 4.05239 74.9828C4.41927 75.6621 4.91957 76.2735 5.55328 76.8169C6.08694 77.3264 6.70397 77.751 7.40439 78.0907C8.93865 78.77 10.5229 78.9738 12.1572 78.702C13.8249 78.3963 15.3091 77.6831 16.6099 76.5622C22.8803 71.1276 29.084 65.6251 35.2211 60.0547C35.4212 60.5982 35.6547 61.1586 35.9215 61.736C36.155 62.2795 36.4218 62.806 36.722 63.3155C37.0555 63.9268 37.4391 64.5043 37.8726 65.0477C40.2741 67.9348 42.8423 70.7031 45.5773 73.3524C47.9787 75.5942 50.5469 77.6491 53.2819 79.5172C53.9823 79.9927 54.7494 80.3154 55.5833 80.4852C56.3504 80.6551 57.1509 80.74 57.9847 80.74C58.9853 80.6381 59.9025 80.2475 60.7363 79.5682C61.3701 79.0587 61.9871 78.5322 62.5875 77.9888C63.1211 77.4453 63.538 76.783 63.8382 76.0017C63.9383 75.764 64.0216 75.5262 64.0883 75.2885C64.4886 73.8279 64.5386 72.3674 64.2384 70.9068C64.105 70.3294 63.9383 69.769 63.7381 69.2255C63.538 68.6481 63.2545 68.1386 62.8876 67.6971C59.2521 62.9758 55.5666 58.3225 51.831 53.7371C52.4981 53.6691 53.1151 53.4823 53.6821 53.1766C59.3855 50.6292 64.9555 47.81 70.3921 44.7191C72.8269 43.3944 75.1116 41.832 77.2462 40.0318Z" fill="#5856D6"/>
</svg>

<svg xmlns="http://www.w3.org/2000/svg" width="81" height="81" fill="none" xmlns:v="https://vecta.io/nano"><path d="M77.246 40.032c.667-.543 1.234-1.189 1.701-1.936a6.16 6.16 0 0 0 1.101-3.719c-.033-2.174-.767-4.076-2.201-5.706-1.134-1.257-2.585-2.072-4.353-2.446-.634-.068-1.234 0-1.801.204-1.834.136-3.569.578-5.203 1.325-6.704 3.261-13.291 6.759-19.762 10.496-.467.238-.917.526-1.351.866-.3.272-.65.526-1.051.764h-.2c-.033-.068-.05-.119-.05-.153-.033-.102-.033-.187 0-.255l4.953-15.081c.7-2.174 1.151-4.382 1.351-6.623a114 114 0 0 1 .35-3.515c.233-2.378.133-4.721-.3-7.031-.267-1.257-.8-2.361-1.601-3.312-1.267-1.461-2.818-2.463-4.653-3.006A26.51 26.51 0 0 0 42.626.75a6.46 6.46 0 0 0-3.552.815c-.233.136-.467.289-.701.459s-.45.374-.65.611c-.467.442-.884.917-1.251 1.427-1.234 1.766-2.068 3.702-2.501 5.808l-4.503 22.672a3.34 3.34 0 0 0 0 .815c.033.34.083.679.15 1.019a314.3 314.3 0 0 0-10.606-9.527 60.9 60.9 0 0 0-5.453-4.28c-.467-.272-.934-.526-1.401-.764-1.267-.611-2.585-.985-3.952-1.121-2.301-.034-4.253.764-5.853 2.395C.851 22.573.083 24.492.05 26.836c0 1.257.3 2.514.901 3.77.6 1.291 1.418 2.547 2.451 3.77a362.09 362.09 0 0 0 14.709 12.228c1.267 1.019 2.635 1.902 4.102 2.649L6.654 62.551c-.634.577-1.217 1.206-1.751 1.885-.467.611-.8 1.291-1.001 2.038-.5 1.868-.717 3.787-.65 5.757.033.951.3 1.868.8 2.751.367.679.867 1.291 1.501 1.834.534.51 1.151.934 1.851 1.274 1.534.679 3.119.883 4.753.611a9.27 9.27 0 0 0 4.453-2.14l18.611-16.508a22.78 22.78 0 0 0 .7 1.681c.233.544.5 1.07.8 1.58a11.95 11.95 0 0 0 1.151 1.732 105.38 105.38 0 0 0 7.705 8.305c2.401 2.242 4.97 4.297 7.705 6.165a6.29 6.29 0 0 0 2.301.968c.767.17 1.568.255 2.401.255 1.001-.102 1.918-.492 2.752-1.172a41.59 41.59 0 0 0 1.851-1.579c.534-.543.95-1.206 1.251-1.987.1-.238.183-.475.25-.713.4-1.461.45-2.921.15-4.382a13.93 13.93 0 0 0-.5-1.681c-.2-.577-.484-1.087-.85-1.528l-11.057-13.96a4.91 4.91 0 0 0 1.851-.56c5.703-2.547 11.273-5.367 16.71-8.458 2.435-1.325 4.719-2.887 6.854-4.687z" fill="#00f"/></svg>
